X:1
T:Grimmige Gruft - Schutz
T:James Gibb editions
T:#
%%score 1 2
L:1/8
Q:1/4=100
M:4/4
K:C
V:1 treble nm="Soprano" snm="S"
V:2 bass nm="Midi_7"
V:1
"^Grimmige Gruft, so hast du dann, SWV 52""^Heinrich Schütz\n(1585-1672)" G2 GG G4 | ^G2 A4 G2 | %2
w: ~Grim- mi- ge Gruft,|so hast du|
w: ~Tyr- ran- nisch Tod,|so habn wir|
w: ~Trau- ri- ges~ Grab,|dein off- nen|
w: ~Un- sätt- lich~ Tod,|gröss- ere Un-|
w: ~Fin- ste- re Höll,|wir schei- den|
w: ~Bit- ter- er Tod,|ob du ge-|
 A2 c4 B2- | B2 A4 G2- | G2 (F/E/G/F/) E4 | D8 |[M:4/4] z BBB (BABc | d2) G2 A2 B2 | c2 e4 d2- | %9
w: dann In Ra\-|* chen dein|* ver\- * * * schlun-|gen|Die e- dle Muttr * * *|* den e- dlen|Stamm, Dar- aus|
w: dann Dein Wil\-|* len jetzt|* er\- * * * fül-|let,|Schar- lach und Pur\- * * *|* pur ab- ge-|tan, In schwartz|
w: Schlund Mit Fel-|* sen hart|* wir * * * stop-|fen,|Auf dass nun- mehr * * *|* zu kei- ner|Stund Du nim\-|
w: fall Tu uns|* ja nicht|* zu\- * * * fü-|gen|Und lass an un\- * * *|* serm Leid ein-|mal Er- sätt\-|
w: ab Und las\-|* sen dich|* al\- * * * lei-|ne;|Du woll- est bis * * *|* an je- nen|Tag Ver- wah\-|
w: schwind Uns jet\-|* ze hast|* be\- * * * trü-|bet|Und wie an al\- * * *|* len A- dams|Kind Dein Tück|
 d2 c4 B2- | BA (d4 c/B/A/G/) | A8 | z4 _B2 B2- | B2 _B2 B4 | ^F2 F4 F2 | G4 c4 | c4 c2 c2- | %17
w: * uns ist|* ent- sprung\- * * * *|en|Des Lan\-|* des Schutz,|Der Fein- de|Trutz, Das|Reis dar- aus|
w: * Tuch uns|* ge- hül\- * * * *|let;|All In\-|* stru- ment|Von uns ge-|wendt In|dein Liv- rey|
w: * mer steh\-|* est of\- * * * *|fen;|Trau- ri\-|* ge Dunst,|Der Trä- nen|Brunst Aus|dir her- auf|
w: * gen dich|* und gnü\- * * * *|gen.|Vor deim|* Ge- schoss|Und Sen- sen|bloss Hin-|für Gott woll|
w: * ren die|* Ge- bei\- * * * *|ne;|Nichts Un\-|* rei- nes,|Un- christ- lich-|es Die-|sel- ben lass|
w: * an uns|* ge- ü\- * * * *|bet,|Doch hof\-|* fen wir,|Dass wel- cher|dir Den|Sta- chel hat|
 c2 (B/c/d/c/) B4 | A8 | A2 A4 E2 | ^F4 A2 G2- | G2 A2 F4 | A4 A4 | B2 c4 (B/c/d/G/) | A8 | G16 |] %26
w: * ge\- * * * wach-|sen|Der fürst- lich|Mann ganz lo\-|* be- san,|Herr Jan|Ge- org zu * * *|Sach-|sen.|
w: * wir * * * klei-|den,|Der Or- geln|Klang, Der Mu\-|* sik Gsang|Wegn deins|Ge- walts wir * * *|mei-|den.|
w: * tut * * * stei-|gen,|All un- sre|Freud Und Fröh\-|* lich- keit|Gar weit|tust du ver\- * * *|trei-|ben.|
w: * be\- * * * frei-|en|Die e- dle|Raut: An- der|* Un- kraut|Magst im-|mer- hin ab\- * * *|mai-|hen.|
w: * be\- * * * rüh-|ren,|Auf dass sie|nu Ein se\-|* lig Ruh|Mögn un-|ge- hin- dert * * *|führ-|en.|
w: * ge\- * * * nom-|men,|Die Gbei- ne|Kalt Werd weck\-|* en bald,|Wann er|wird wie- der\- * * *|kom-|men.|
V:2
 C,6 D,2 | E,8 | A,,4 E,4 | F,4 C,4 | D,4 G,,2 A,,2 | D,8 |[M:4/4] G,,8 | G,2 E,2 F,2 G,2 | %8
 C,4 G,4 | A,4 G,4 | F,4 E,4 | D,8 | z4 _B,,4- | B,,4 _B,,4 | A,,8 | G,,4 A,,4 | A,,4 A,,2 A,,2- | %17
 A,,2 A,,2 E,4 | A,,8 | D,2 ^C,4 C,2 | D,4 F,2 =C,2- | C,2 C,2 F,,4 | F,4 A,4 | G,2 ^F,4 G,2 | %24
 ^C,4 D,4 | G,,16 |] %26

